X: 1
T: Mike Coen's
M: 2/4
L: 1/8
R: polka
K: Edor
GE BE|GE BA/G/|FD AD|F/D/F/G/ AB/A/|
GE BE|GB d2|ed BA|1GE E>F:|2GE ED||
|:G2 BA|G2 BA|F2 AF|ED DE/F/|
GB BA/B/|G/A/B/c/ d2|ed BA|1GE ED:|2GE E>F||
